icons/breezeLight/actions/24/snap-to-grid.svg

<svg viewBox="0 0 24 24" xmlns="http://www.w3.org/2000/svg"><path d="m7 4v3h-3v1h3v3h-3v1h3v3h-3v1h3v3h1v-3h3v3h1v-3h3v3h1v-3h3v-1h-3v-3h3v-1h-3v-3h3v-1h-3v-3h-1v3h-3v-3h-1v3h-3v-3zm1 4h3v3h-3zm4 0h3v3h-3zm-4 4h3v3h-3zm4 0h3v3h-3z" fill="#4d4d4d" fill-opacity=".501961"/><path d="m14.5 9a5.5 5.5 0 0 0 -5.5 5.5v5.5h4v-5.5a1.5 1.5 0 0 1 1.5-1.5 1.5 1.5 0 0 1 1.5 1.5v5.5h4v-5.5a5.5 5.5 0 0 0 -5.5-5.5zm0 1a4.5 4.5 0 0 0 -.388672.019531 4.5 4.5 0 0 1 .388672-.019531zm.388672.019531a4.5 4.5 0 0 1 .220703.027344 4.5 4.5 0 0 0 -.220703-.027344zm-.998047.027344a4.5 4.5 0 0 0 -.212891.033203 4.5 4.5 0 0 1 .212891-.033203zm1.431641.033203a4.5 4.5 0 0 1 .236328.052734 4.5 4.5 0 0 0 -.236328-.052734zm-1.88086.052734a4.5 4.5 0 0 0 -.205078.050782 4.5 4.5 0 0 1 .205078-.050782zm2.322266.050782a4.5 4.5 0 0 1 .226562.076172 4.5 4.5 0 0 0 -.226562-.076172zm-2.753906.076172a4.5 4.5 0 0 0 -.195313.072265 4.5 4.5 0 0 1 .195313-.072265zm3.175781.072265a4.5 4.5 0 0 1 .228515.101563 4.5 4.5 0 0 0 -.228515-.101563zm-3.599609.101563a4.5 4.5 0 0 0 -.173829.083984 4.5 4.5 0 0 1 .173829-.083984zm4.001953.083984a4.5 4.5 0 0 1 .21875.123047 4.5 4.5 0 0 0 -.21875-.123047zm-4.394532.123047a4.5 4.5 0 0 0 -.175781.109375 4.5 4.5 0 0 1 .175781-.109375zm4.789063.109375a4.5 4.5 0 0 1 .185547.130859 4.5 4.5 0 0 0 -.185547-.130859zm-5.150391.130859a4.5 4.5 0 0 0 -.183593.142579 4.5 4.5 0 0 1 .183593-.142579zm5.519531.142579a4.5 4.5 0 0 1 .150391.132812 4.5 4.5 0 0 0 -.150391-.132812zm-5.853515.132812a4.5 4.5 0 0 0 -.177735.164062 4.5 4.5 0 0 1 .177735-.164062zm6.181641.164062a4.5 4.5 0 0 1 .164062.177735 4.5 4.5 0 0 0 -.164062-.177735zm-6.523438.177735a4.5 4.5 0 0 0 -.132812.150391 4.5 4.5 0 0 1 .132812-.150391zm6.820312.150391a4.5 4.5 0 0 1 .142579.183593 4.5 4.5 0 0 0 -.142579-.183593zm-7.095703.183593a4.5 4.5 0 0 0 -.130859.185547 4.5 4.5 0 0 1 .130859-.185547zm3.619141.167969a2.5 2.5 0 0 0 -.208984.009766 2.5 2.5 0 0 1 .208984-.009766zm.208984.009766a2.5 2.5 0 0 1 .140625.017578 2.5 2.5 0 0 0 -.140625-.017578zm3.541016.007812a4.5 4.5 0 0 1 .109375.175781 4.5 4.5 0 0 0 -.109375-.175781zm-4.099609.009766a2.5 2.5 0 0 0 -.113282.017578 2.5 2.5 0 0 1 .113282-.017578zm.8125.017578a2.5 2.5 0 0 1 .125.029297 2.5 2.5 0 0 0 -.125-.029297zm-1.050782.029297a2.5 2.5 0 0 0 -.105468.02539 2.5 2.5 0 0 1 .105468-.02539zm1.28125.02539a2.5 2.5 0 0 1 .134766.044922 2.5 2.5 0 0 0 -.134766-.044922zm-1.521484.044922a2.5 2.5 0 0 0 -.117187.042969 2.5 2.5 0 0 1 .117187-.042969zm1.773437.042969a2.5 2.5 0 0 1 .083985.037109 2.5 2.5 0 0 0 -.083985-.037109zm-4.804687.005859a4.5 4.5 0 0 0 -.123047.21875 4.5 4.5 0 0 1 .123047-.21875zm2.830078.03125a2.5 2.5 0 0 0 -.148437.072266 2.5 2.5 0 0 1 .148437-.072266zm2.207031.072266a2.5 2.5 0 0 1 .074219.042969 2.5 2.5 0 0 0 -.074219-.042969zm-2.429687.042969a2.5 2.5 0 0 0 -.138672.083984 2.5 2.5 0 0 1 .138672-.083984zm5.234375.072265a4.5 4.5 0 0 1 .083984.173829 4.5 4.5 0 0 0 -.083984-.173829zm-2.591797.011719a2.5 2.5 0 0 1 .068359.048828 2.5 2.5 0 0 0 -.068359-.048828zm-2.849609.048828a2.5 2.5 0 0 0 -.126954.095703 2.5 2.5 0 0 1 .126954-.095703zm3.044922.095703a2.5 2.5 0 0 1 .089843.080079 2.5 2.5 0 0 0 -.089843-.080079zm-5.652344.017579a4.5 4.5 0 0 0 -.101563.228515 4.5 4.5 0 0 1 .101563-.228515zm2.390625.0625a2.5 2.5 0 0 0 -.091797.083984 2.5 2.5 0 0 1 .091797-.083984zm3.443359.083984a2.5 2.5 0 0 1 .083984.091797 2.5 2.5 0 0 0 -.083984-.091797zm2.400391.082031a4.5 4.5 0 0 1 .072265.195313 4.5 4.5 0 0 0 -.072265-.195313zm-6.019531.009766a2.5 2.5 0 0 0 -.080079.089843 2.5 2.5 0 0 1 .080079-.089843zm3.783203.089843a2.5 2.5 0 0 1 .095703.126954 2.5 2.5 0 0 0 -.095703-.126954zm-6.171875.095704a4.5 4.5 0 0 0 -.076172.226562 4.5 4.5 0 0 1 .076172-.226562zm2.21289.03125a2.5 2.5 0 0 0 -.048828.068359 2.5 2.5 0 0 1 .048828-.068359zm4.103516.068359a2.5 2.5 0 0 1 .083984.138672 2.5 2.5 0 0 0 -.083984-.138672zm2.240234.126953a4.5 4.5 0 0 1 .050782.205078 4.5 4.5 0 0 0 -.050782-.205078zm-6.476562.011719a2.5 2.5 0 0 0 -.042969.074219 2.5 2.5 0 0 1 .042969-.074219zm4.363281.074219a2.5 2.5 0 0 1 .072266.148437 2.5 2.5 0 0 0 -.072266-.148437zm-6.570313.11914a4.5 4.5 0 0 0 -.052734.236328 4.5 4.5 0 0 1 .052734-.236328zm2.091797.029297a2.5 2.5 0 0 0 -.037109.083985 2.5 2.5 0 0 1 .037109-.083985zm4.587891.083985a2.5 2.5 0 0 1 .042969.117187 2.5 2.5 0 0 0 -.042969-.117187zm-4.667969.117187a2.5 2.5 0 0 0 -.044922.134766 2.5 2.5 0 0 1 .044922-.134766zm6.775391.005859a4.5 4.5 0 0 1 .033203.212891 4.5 4.5 0 0 0 -.033203-.212891zm-2.019531.128907a2.5 2.5 0 0 1 .02539.105468 2.5 2.5 0 0 0 -.02539-.105468zm-6.853516.083984a4.5 4.5 0 0 0 -.027344.220703 4.5 4.5 0 0 1 .027344-.220703zm2.027344.021484a2.5 2.5 0 0 0 -.029297.125 2.5 2.5 0 0 1 .029297-.125zm4.880859.125a2.5 2.5 0 0 1 .017578.113282 2.5 2.5 0 0 0 -.017578-.113282zm2.025391.074219a4.5 4.5 0 0 1 .019531.388672 4.5 4.5 0 0 0 -.019531-.388672zm-6.953125.039063a2.5 2.5 0 0 0 -.017578.140625 2.5 2.5 0 0 1 .017578-.140625zm4.96289.140625a2.5 2.5 0 0 1 .009766.208984 2.5 2.5 0 0 0 -.009766-.208984zm-6.990234.708984h2v4h-2zm7 0h2v4h-2z" fill="#4d4d4d"/><path d="m10 15h2v4h-2z" fill="#da4453"/><path d="m17 15h2v4h-2z" fill="#3daee9"/></svg>

<?xml version="1.0" encoding="UTF-8" standalone="no"?>
<svg
   xmlns:dc="http://purl.org/dc/elements/1.1/"
   xmlns:cc="http://creativecommons.org/ns#"
   xmlns:rdf="http://www.w3.org/1999/02/22-rdf-syntax-ns#"
   xmlns:svg="http://www.w3.org/2000/svg"
   xmlns="http://www.w3.org/2000/svg"
   xmlns:sodipodi="http://sodipodi.sourceforge.net/DTD/sodipodi-0.dtd"
   xmlns:inkscape="http://www.inkscape.org/namespaces/inkscape"
   viewBox="0 0 24 24"
   version="1.1"
   id="svg6"
   sodipodi:docname="snap-to-grid.svg"
   inkscape:version="0.92.4 (5da689c313, 2019-01-14)">
  <metadata
     id="metadata10">
    <rdf:RDF>
      <cc:Work
         rdf:about="">
        <dc:format>image/svg+xml</dc:format>
        <dc:type
           rdf:resource="http://purl.org/dc/dcmitype/StillImage" />
        <dc:title></dc:title>
      </cc:Work>
    </rdf:RDF>
  </metadata>
  <sodipodi:namedview
     pagecolor="#ffffff"
     bordercolor="#666666"
     borderopacity="1"
     objecttolerance="10"
     gridtolerance="10"
     guidetolerance="10"
     inkscape:pageopacity="0"
     inkscape:pageshadow="2"
     inkscape:window-width="1368"
     inkscape:window-height="1103"
     id="namedview8"
     showgrid="true"
     inkscape:zoom="22.627417"
     inkscape:cx="10.011588"
     inkscape:cy="5.2968045"
     inkscape:window-x="1368"
     inkscape:window-y="767"
     inkscape:window-maximized="0"
     inkscape:current-layer="svg6"
     showguides="false"
     inkscape:snap-object-midpoints="true"
     inkscape:snap-center="true">
    <inkscape:grid
       type="xygrid"
       id="grid3715"
       empspacing="8"
       spacingx="0.5"
       spacingy="0.5" />
    <inkscape:grid
       type="xygrid"
       id="grid3771"
       empspacing="1"
       color="#ff3f3f"
       opacity="0.1254902"
       empcolor="#ff3f3f"
       empopacity="0.25098039" />
  </sodipodi:namedview>
  <defs
     id="defs3051">
    <style
       type="text/css"
       id="current-color-scheme">
      .ColorScheme-Text {
        color:#4d4d4d;
      }
      </style>
  </defs>
  <path
     style="color:#000000;font-style:normal;font-variant:normal;font-weight:normal;font-stretch:normal;font-size:medium;line-height:normal;font-family:sans-serif;font-variant-ligatures:normal;font-variant-position:normal;font-variant-caps:normal;font-variant-numeric:normal;font-variant-alternates:normal;font-feature-settings:normal;text-indent:0;text-align:start;text-decoration:none;text-decoration-line:none;text-decoration-style:solid;text-decoration-color:#000000;letter-spacing:normal;word-spacing:normal;text-transform:none;writing-mode:lr-tb;direction:ltr;text-orientation:mixed;dominant-baseline:auto;baseline-shift:baseline;text-anchor:start;white-space:normal;shape-padding:0;clip-rule:nonzero;display:inline;overflow:visible;visibility:visible;opacity:1;isolation:auto;mix-blend-mode:normal;color-interpolation:sRGB;color-interpolation-filters:linearRGB;solid-color:#000000;solid-opacity:1;vector-effect:none;fill:#4d4d4d;fill-opacity:0.50196081;fill-rule:nonzero;stroke:none;stroke-width:1px;stroke-linecap:butt;stroke-linejoin:miter;stroke-miterlimit:4;stroke-dasharray:none;stroke-dashoffset:0;stroke-opacity:1;color-rendering:auto;image-rendering:auto;shape-rendering:auto;text-rendering:auto;enable-background:accumulate"
     d="M 7 4 L 7 7 L 4 7 L 4 8 L 7 8 L 7 11 L 4 11 L 4 12 L 7 12 L 7 15 L 4 15 L 4 16 L 7 16 L 7 19 L 8 19 L 8 16 L 11 16 L 11 19 L 12 19 L 12 16 L 15 16 L 15 19 L 16 19 L 16 16 L 19 16 L 19 15 L 16 15 L 16 12 L 19 12 L 19 11 L 16 11 L 16 8 L 19 8 L 19 7 L 16 7 L 16 4 L 15 4 L 15 7 L 12 7 L 12 4 L 11 4 L 11 7 L 8 7 L 8 4 L 7 4 z M 8 8 L 11 8 L 11 11 L 8 11 L 8 8 z M 12 8 L 15 8 L 15 11 L 12 11 L 12 8 z M 8 12 L 11 12 L 11 15 L 8 15 L 8 12 z M 12 12 L 15 12 L 15 15 L 12 15 L 12 12 z "
     id="path3717" />
  <path
     style="fill:#4d4d4d;fill-opacity:1"
     d="M 14.5 9 A 5.5 5.5 0 0 0 9 14.5 L 9 20 L 13 20 L 13 14.5 A 1.5 1.5 0 0 1 14.5 13 A 1.5 1.5 0 0 1 16 14.5 L 16 20 L 20 20 L 20 14.5 A 5.5 5.5 0 0 0 14.5 9 z M 14.5 10 A 4.5 4.5 0 0 0 14.111328 10.019531 A 4.5 4.5 0 0 1 14.5 10 z M 14.888672 10.019531 A 4.5 4.5 0 0 1 15.109375 10.046875 A 4.5 4.5 0 0 0 14.888672 10.019531 z M 13.890625 10.046875 A 4.5 4.5 0 0 0 13.677734 10.080078 A 4.5 4.5 0 0 1 13.890625 10.046875 z M 15.322266 10.080078 A 4.5 4.5 0 0 1 15.558594 10.132812 A 4.5 4.5 0 0 0 15.322266 10.080078 z M 13.441406 10.132812 A 4.5 4.5 0 0 0 13.236328 10.183594 A 4.5 4.5 0 0 1 13.441406 10.132812 z M 15.763672 10.183594 A 4.5 4.5 0 0 1 15.990234 10.259766 A 4.5 4.5 0 0 0 15.763672 10.183594 z M 13.009766 10.259766 A 4.5 4.5 0 0 0 12.814453 10.332031 A 4.5 4.5 0 0 1 13.009766 10.259766 z M 16.185547 10.332031 A 4.5 4.5 0 0 1 16.414062 10.433594 A 4.5 4.5 0 0 0 16.185547 10.332031 z M 12.585938 10.433594 A 4.5 4.5 0 0 0 12.412109 10.517578 A 4.5 4.5 0 0 1 12.585938 10.433594 z M 16.587891 10.517578 A 4.5 4.5 0 0 1 16.806641 10.640625 A 4.5 4.5 0 0 0 16.587891 10.517578 z M 12.193359 10.640625 A 4.5 4.5 0 0 0 12.017578 10.75 A 4.5 4.5 0 0 1 12.193359 10.640625 z M 16.982422 10.75 A 4.5 4.5 0 0 1 17.167969 10.880859 A 4.5 4.5 0 0 0 16.982422 10.75 z M 11.832031 10.880859 A 4.5 4.5 0 0 0 11.648438 11.023438 A 4.5 4.5 0 0 1 11.832031 10.880859 z M 17.351562 11.023438 A 4.5 4.5 0 0 1 17.501953 11.15625 A 4.5 4.5 0 0 0 17.351562 11.023438 z M 11.498047 11.15625 A 4.5 4.5 0 0 0 11.320312 11.320312 A 4.5 4.5 0 0 1 11.498047 11.15625 z M 17.679688 11.320312 A 4.5 4.5 0 0 1 17.84375 11.498047 A 4.5 4.5 0 0 0 17.679688 11.320312 z M 11.15625 11.498047 A 4.5 4.5 0 0 0 11.023438 11.648438 A 4.5 4.5 0 0 1 11.15625 11.498047 z M 17.976562 11.648438 A 4.5 4.5 0 0 1 18.119141 11.832031 A 4.5 4.5 0 0 0 17.976562 11.648438 z M 10.880859 11.832031 A 4.5 4.5 0 0 0 10.75 12.017578 A 4.5 4.5 0 0 1 10.880859 11.832031 z M 14.5 12 A 2.5 2.5 0 0 0 14.291016 12.009766 A 2.5 2.5 0 0 1 14.5 12 z M 14.708984 12.009766 A 2.5 2.5 0 0 1 14.849609 12.027344 A 2.5 2.5 0 0 0 14.708984 12.009766 z M 18.25 12.017578 A 4.5 4.5 0 0 1 18.359375 12.193359 A 4.5 4.5 0 0 0 18.25 12.017578 z M 14.150391 12.027344 A 2.5 2.5 0 0 0 14.037109 12.044922 A 2.5 2.5 0 0 1 14.150391 12.027344 z M 14.962891 12.044922 A 2.5 2.5 0 0 1 15.087891 12.074219 A 2.5 2.5 0 0 0 14.962891 12.044922 z M 13.912109 12.074219 A 2.5 2.5 0 0 0 13.806641 12.099609 A 2.5 2.5 0 0 1 13.912109 12.074219 z M 15.193359 12.099609 A 2.5 2.5 0 0 1 15.328125 12.144531 A 2.5 2.5 0 0 0 15.193359 12.099609 z M 13.671875 12.144531 A 2.5 2.5 0 0 0 13.554688 12.1875 A 2.5 2.5 0 0 1 13.671875 12.144531 z M 15.445312 12.1875 A 2.5 2.5 0 0 1 15.529297 12.224609 A 2.5 2.5 0 0 0 15.445312 12.1875 z M 10.640625 12.193359 A 4.5 4.5 0 0 0 10.517578 12.412109 A 4.5 4.5 0 0 1 10.640625 12.193359 z M 13.470703 12.224609 A 2.5 2.5 0 0 0 13.322266 12.296875 A 2.5 2.5 0 0 1 13.470703 12.224609 z M 15.677734 12.296875 A 2.5 2.5 0 0 1 15.751953 12.339844 A 2.5 2.5 0 0 0 15.677734 12.296875 z M 13.248047 12.339844 A 2.5 2.5 0 0 0 13.109375 12.423828 A 2.5 2.5 0 0 1 13.248047 12.339844 z M 18.482422 12.412109 A 4.5 4.5 0 0 1 18.566406 12.585938 A 4.5 4.5 0 0 0 18.482422 12.412109 z M 15.890625 12.423828 A 2.5 2.5 0 0 1 15.958984 12.472656 A 2.5 2.5 0 0 0 15.890625 12.423828 z M 13.041016 12.472656 A 2.5 2.5 0 0 0 12.914062 12.568359 A 2.5 2.5 0 0 1 13.041016 12.472656 z M 16.085938 12.568359 A 2.5 2.5 0 0 1 16.175781 12.648438 A 2.5 2.5 0 0 0 16.085938 12.568359 z M 10.433594 12.585938 A 4.5 4.5 0 0 0 10.332031 12.814453 A 4.5 4.5 0 0 1 10.433594 12.585938 z M 12.824219 12.648438 A 2.5 2.5 0 0 0 12.732422 12.732422 A 2.5 2.5 0 0 1 12.824219 12.648438 z M 16.267578 12.732422 A 2.5 2.5 0 0 1 16.351562 12.824219 A 2.5 2.5 0 0 0 16.267578 12.732422 z M 18.667969 12.814453 A 4.5 4.5 0 0 1 18.740234 13.009766 A 4.5 4.5 0 0 0 18.667969 12.814453 z M 12.648438 12.824219 A 2.5 2.5 0 0 0 12.568359 12.914062 A 2.5 2.5 0 0 1 12.648438 12.824219 z M 16.431641 12.914062 A 2.5 2.5 0 0 1 16.527344 13.041016 A 2.5 2.5 0 0 0 16.431641 12.914062 z M 10.259766 13.009766 A 4.5 4.5 0 0 0 10.183594 13.236328 A 4.5 4.5 0 0 1 10.259766 13.009766 z M 12.472656 13.041016 A 2.5 2.5 0 0 0 12.423828 13.109375 A 2.5 2.5 0 0 1 12.472656 13.041016 z M 16.576172 13.109375 A 2.5 2.5 0 0 1 16.660156 13.248047 A 2.5 2.5 0 0 0 16.576172 13.109375 z M 18.816406 13.236328 A 4.5 4.5 0 0 1 18.867188 13.441406 A 4.5 4.5 0 0 0 18.816406 13.236328 z M 12.339844 13.248047 A 2.5 2.5 0 0 0 12.296875 13.322266 A 2.5 2.5 0 0 1 12.339844 13.248047 z M 16.703125 13.322266 A 2.5 2.5 0 0 1 16.775391 13.470703 A 2.5 2.5 0 0 0 16.703125 13.322266 z M 10.132812 13.441406 A 4.5 4.5 0 0 0 10.080078 13.677734 A 4.5 4.5 0 0 1 10.132812 13.441406 z M 12.224609 13.470703 A 2.5 2.5 0 0 0 12.1875 13.554688 A 2.5 2.5 0 0 1 12.224609 13.470703 z M 16.8125 13.554688 A 2.5 2.5 0 0 1 16.855469 13.671875 A 2.5 2.5 0 0 0 16.8125 13.554688 z M 12.144531 13.671875 A 2.5 2.5 0 0 0 12.099609 13.806641 A 2.5 2.5 0 0 1 12.144531 13.671875 z M 18.919922 13.677734 A 4.5 4.5 0 0 1 18.953125 13.890625 A 4.5 4.5 0 0 0 18.919922 13.677734 z M 16.900391 13.806641 A 2.5 2.5 0 0 1 16.925781 13.912109 A 2.5 2.5 0 0 0 16.900391 13.806641 z M 10.046875 13.890625 A 4.5 4.5 0 0 0 10.019531 14.111328 A 4.5 4.5 0 0 1 10.046875 13.890625 z M 12.074219 13.912109 A 2.5 2.5 0 0 0 12.044922 14.037109 A 2.5 2.5 0 0 1 12.074219 13.912109 z M 16.955078 14.037109 A 2.5 2.5 0 0 1 16.972656 14.150391 A 2.5 2.5 0 0 0 16.955078 14.037109 z M 18.980469 14.111328 A 4.5 4.5 0 0 1 19 14.5 A 4.5 4.5 0 0 0 18.980469 14.111328 z M 12.027344 14.150391 A 2.5 2.5 0 0 0 12.009766 14.291016 A 2.5 2.5 0 0 1 12.027344 14.150391 z M 16.990234 14.291016 A 2.5 2.5 0 0 1 17 14.5 A 2.5 2.5 0 0 0 16.990234 14.291016 z M 10 15 L 12 15 L 12 19 L 10 19 L 10 15 z M 17 15 L 19 15 L 19 19 L 17 19 L 17 15 z "
     id="rect3769" />
  <rect
     id="rect3852"
     width="2"
     height="4"
     x="10"
     y="15"
     style="fill:#da4453;fill-opacity:1" />
  <rect
     id="rect3852-9"
     width="2"
     height="4"
     x="17"
     y="15"
     style="fill:#3daee9;fill-opacity:1" />
</svg>
